X: 1
T: String Quartet in E\b Major opus 71 no 3 mvt 4
C: Franz Joseph Haydn
%%abc-version 2.0
%%abcx-abcm2ps-target-version 5.9.1 (29 Sep 2008)
%%abc-creator hum2abc beta
%%abcx-conversion-date 2021/02/14 14:38:18
%%abc-copyright Copyright (c) 1994, 2000 Center for Computer Assisted Research in the Humanities
%%abc-edited-by Frances Bennion
%%abcx-initial-encoding-date 1997/04/15
%%gracespace 0 6 6
%%humdrum-veritas 3762655573
%%humdrum-veritas-data 3557348059
%%linebreak <none>
%%barnumbers 0
L: 1/8
M: 6/8
N: Derived from op71n3-04.krn
Q: "Finale: Vivace"
%%staves [1 2 3 4]
V: 1
V: 2
V: 3 clef=alto
V: 4 clef=bass
K: Eb
[V:1]z4 zA [I:setbarnb1]|
[V:2]z4 zz |
[V:3]z4 zz |
[V:4]z4 zz |
[V:1]G2E DzA |
[V:2]z[EG,][G,E] z[A,D][DA,] |
[V:3]zG,G, zF,F, |
[V:4]E,,2z B,,2z |
[V:1]G2E DzB |
[V:2]z[EG,][G,E] z[DA,][A,D] |
[V:3]zG,G, zF,F, |
[V:4]E,,2z B,,2z |
[V:1]eAG cFE |
[V:2]zED zCB, |
[V:3]zCB, zA,G, |
[V:4]zCB, zA,G, |
[V:1]DAG FzA |
[V:2]A,FE DzF |
[V:3]F,B,B, B,zB, |
[V:4]F,D,E, B,,zD,, |
[V:1]G2E DzA |
[V:2]E2=A, B,zF |
[V:3]B,2E, F,zB, |
[V:4]E,,G,,C, B,,zD,, |
[V:1]G2E DzB |
[V:2]E2=A, B,zD |
[V:3]B,2E, F,z2 |
[V:4]E,,G,,C, B,,zB,- |
[V:1]c2d e2d |
[V:2]E2F B,3 |
[V:3]z2B, E2F |
[V:4]B,=A,_A,2 G,F, |
[V:1]cB=A B2b |
[V:2]CDE D2B |
[V:3]GFC D2F |
[V:4]E,F,F, B,,2D |
[V:1]_c'b=a b2g |
[V:2]_cB=A B2G |
[V:3]_G4 FD |
[V:4]E4 D=B, |
[V:1]ag^f g2=f |
[V:2]AG^F G2=F |
[V:3]E4 D=B, |
[V:4]C4 =B,G, |
[V:1]e4 fe |
[V:2]E3 _D3 |
[V:3]C_DC B,3 |
[V:4]A,B,A, G,3 |
[V:1]e3 =e3 |
[V:2]C_DC D3 |
[V:3]A,B,A, B,3 |
[V:4]A,B,A, G,A,G, |
[V:1]fag bac' |
[V:2]CAG BAc |
[V:3]A,F=E GFA |
[V:4]A,F,=E, G,F,A, |
[V:1]e3 d2B |
[V:2]Bc=A B2F |
[V:3]G2_G F2D |
[V:4]B,2>B,,2 B,B, |
[V:1]_cB=A B2B, |
[V:2]_G3 F2B, |
[V:3]E3 D2B, |
[V:4]B,4- B,B,, |
[V:1]_CB,=A, B,2B |
[V:2]_CB,=A, B,2F |
[V:3]_CB,=A, B,2D |
[V:4]_C,B,,=A,, B,,B,B, |
[V:1]_ce=A B2F |
[V:2]_G3 F2F |
[V:3]E3 D2F |
[V:4]B,4- B,F, |
[V:1]_GE=A, B,2B- |
[V:2]_GE=A, B,2z |
[V:3]_GE=A, B,2A |
[V:4]_G,E,=A,, B,,2z |
[V:1]Beg2 fB- |
[V:2]z6 |
[V:3]G2E DzA |
[V:4]z6 |
[V:1]Beg2 fa- |
[V:2]z6 |
[V:3]G2E D2c |
[V:4]z6 |
[V:1]agc'2 ba- |
[V:2]z4 zf- |
[V:3]B2A G2A |
[V:4]z6 |
[V:1]agf2 gB- |
[V:2]fed2 eB,- |
[V:3]B2B, E2A, |
[V:4]z4 zA,, |
[V:1]Beg2 fB- |
[V:2]B,EG2 FB,- |
[V:3]G,2E, D,zA, |
[V:4]G,,2E,, D,,zA,, |
[V:1]Beg2 fa- |
[V:2]B,EG2 FA- |
[V:3]G,2E, D,2C |
[V:4]G,,2E,, D,,2C, |
[V:1]agc'2 be'- |
[V:2]AGc2 Be- |
[V:3]B,2A, G,2B |
[V:4]B,,2A,, G,,2G |
[V:1]e'd'c'2 b=a |
[V:2]edc2 B=A |
[V:3]A2G F2E |
[V:4]F2E D2C |
[V:1]b2=b c'2z |
[V:2]B2=B c2z |
[V:3]F3 z3 |
[V:4]D3 z3 |
[V:1]z4 za- |
[V:2]z4 zf- |
[V:3]z4 zB- |
[V:4]z4 zD, |
[V:1]agf2 ed |
[V:2]fee2 GF |
[V:3]BB,c2 BA/F/ |
[V:4]E,2A, B,2B,, |
[V:1]f2>e2 z2 |
[V:2]A2>G2 z2 |
[V:3]D2>E2 z2 |
[V:4]E,2>E,,2 z2 |
[V:1]f2>e2 z/B/c/d/ |
[V:2]A2>G2 zA |
[V:3]D2>E2 z2 |
[V:4]E,2>E,,2 z2 |
[V:1]e/d/e/f/g/a/ b/c'/b/a/g/f/ |
[V:2]G2E DzA |
[V:3]z6 |
[V:4]z6 |
[V:1]e/d/e/f/g/a/ b/c'/b/a/g/f/ |
[V:2]G2E D2A |
[V:3]z6 |
[V:4]z6 |
[V:1]e/f/g/f/e/d/ c/B/=A/g/f/e/ |
[V:2]G2F E/D/C/E/D/C/ |
[V:3]z4 z/F,/G,/=A,/ |
[V:4]z6 |
[V:1]d2B =Aze |
[V:2]B,2z3 =a |
[V:3]B,/=A,/B,/C/D/E/ F/G/F/E/D/C/ |
[V:4]z6 |
[V:1]d2B =A2e |
[V:2]bfe/d/ c2=A |
[V:3]B,/=A,/B,/C/D/E/ F/G/F/E/D/C/ |
[V:4]z6 |
[V:1]d/e/f/e/f/g/ a/f/e/d/e/f/ |
[V:2]B3 D>B,C/D/ |
[V:3]B,/C/D/C/D/E/ F3 |
[V:4]z4 zA, |
[V:1]B2z4 |
[V:2]E/D/E/F/G/A/ B/c/B/A/G/F/ |
[V:3]G2G, F,2d |
[V:4]G,2E, D,zA, |
[V:1]z6 |
[V:2]E/D/E/F/G/A/ B/c/B/A/G/F/ |
[V:3]eBA/G/ F2B, |
[V:4]G,2E, D,2_D, |
[V:1]z4 zb |
[V:2]=E/F/G/F/G/A/ B/A/G/_d/c/G/ |
[V:3]B/A/G/F/=E/F <EE/F/G/ |
[V:4]C,4 z/C,,/D,,/=E,,/ |
[V:1]a2f =ezb |
[V:2]A2A Gz=e |
[V:3]Czc C=E/G/c- |
[V:4]F,,/=E,,/F,,/G,,/A,,/B,,/ C,/_D,/C,/B,,/A,,/G,,/ |
[V:1]a2f =e2b |
[V:2]f2A G2=e |
[V:3]cCc2 Cc- |
[V:4]F,,/=E,,/F,,/G,,/A,,/B,,/ C,/_D,/C,/B,,/A,,/G,,/ |
[V:1]a/b/a/g/f/e/ d/e/f/e/d/c/ |
[V:2]fc/B/A/G/ F/G/A/G/F/E/ |
[V:3]cFG A3 |
[V:4]F,,3 F,3 |
[V:1]=B/c/d/c/B/A/ G/A/G/F/E/D/ |
[V:2]D/E/F/E/D/C/ =B,2f |
[V:3]G2z2 z/G,/=A,/=B,/ |
[V:4]G,6 |
[V:1]E2z4 |
[V:2]e2c =B2f |
[V:3]C/=B,/C/D/E/F/ G/A/G/F/E/D/ |
[V:4]C,2A,, G,,2=B,, |
[V:1]z6 |
[V:2]e2c =B2f |
[V:3]C/=B,/C/D/E/F/ G/A/G/F/E/D/ |
[V:4]C,2A,, G,,2=B,, |
[V:1]z4 ze' |
[V:2]e/f/g/f/e/d/ c/B/=A/G/F/A/ |
[V:3]C/D/E/D/C/B,/ =A,2F- |
[V:4]C,3 F,/G,/F,/E,/D,/C,/ |
[V:1]d'2b =a2g |
[V:2]B2=e f2_e |
[V:3]FDG F2z |
[V:4]B,,D,G, F,2z |
[V:1]=e/f/g/f/_e/d/ cf=A |
[V:2]d2B =A2_G |
[V:3]z4 zE |
[V:4]z6 |
[V:1]cB=e gf=a |
[V:2]F2_D C2F |
[V:3]D2B, =A,2C |
[V:4]z4 zE, |
[V:1]b/=a/b/f/d' e'/d'/e'/f/d' |
[V:2]B,2F F2F |
[V:3]F2D C2D |
[V:4]D,2B,, =A,,2B,, |
[V:1]e'/d'/e'/f/d'/f/ e'/d'/e'/f/d'/f/ |
[V:2]F2F F2F |
[V:3]C2D C2D |
[V:4]=A,,2B,, A,,2B,, |
[V:1]e'/d'/c'/d'/c'/b/ c'/b/=a/b/a/g/ |
[V:2]F2z F2z |
[V:3]C2z [E2C2]z |
[V:4]=A,,2z A,,2z |
[V:1]=a/g/f/g/f/e/ f/e/d/e/d/c/ |
[V:2]F2z F2z |
[V:3][E2C2]z [E2C2]z |
[V:4]=A,,2z A,,2z |
[V:1]d/c/B/c/B/=A/ B/A/G/A/G/F/ |
[V:2]F2z F2z |
[V:3][E2C2]z [E2C2]z |
[V:4]=A,,2z A,,2z |
[V:1]G/F/=E/G/F/E/ G/F/E/G/F/E/ |
[V:2]F2z4 |
[V:3][C2E2]z4 |
[V:4]=A,,2z4 |
[V:1]G/F/=E/G/F/E/ G/F/_E/G/F/E/ |
[V:2]G/F/=E/G/F/E/ G/F/_E/G/F/E/ |
[V:3]G,/F,/=E,/G,/F,/E,/ G,/F,/_E,/G,/F,/E,/ |
[V:4]G,/F,/=E,/G,/F,/E,/ G,/F,/_E,/G,/F,/E,/ |
[V:1]D/E/F/G/=A/B/ D/E/F/G/A/B/ |
[V:2]D/E/F/G/=A/B/ D/E/F/G/A/B/ |
[V:3]D,/E,/F,/G,/=A,/B,/ D,/E,/F,/G,/A,/B,/ |
[V:4]D,/E,/F,/G,/=A,/B,/ D,/E,/F,/G,/A,/B,/ |
[V:1]EG=B cde |
[V:2]EG=B c2z |
[V:3]E,G,=B, CDE |
[V:4]E,G,=B, C2z |
[V:1]=ef_g =g=ab |
[V:2]z6 |
[V:3]=EF_G =G=AB |
[V:4]z6 |
[V:1]f2=e _ec=A |
[V:2]d2^c =c=AE |
[V:3]F2=E _EC=A, |
[V:4]F,2z4 |
[V:1]B2f2 gc- |
[V:2]D2d2 e=A- |
[V:3]B,2A G2E |
[V:4]B,,6- |
[V:1]cdf2 gc- |
[V:2]ABd2 e=A- |
[V:3]D2A G2E |
[V:4]B,,6- |
[V:1]cdc2 de- |
[V:2]AB=A2 Bc- |
[V:3]D2z3 B |
[V:4]B,,2B, B,,2z |
[V:1]efg2 ab- |
[V:2]cd=e2 fg- |
[V:3]B,2B B,2B |
[V:4]z6 |
[V:1]bc'b agf- |
[V:2]gag fed- |
[V:3]B,2z3 B |
[V:4]z6 |
[V:1]fgf edc |
[V:2]ded cBA |
[V:3]B,2z4 |
[V:4]z6 |
[V:1]B6 |
[V:2]G6 |
[V:3]z6 |
[V:4]z6 |
[V:1]=A3 z2_A |
[V:2]_G3 z2F |
[V:3]z4 zD, |
[V:4]z6 |
[V:1]G2E DzA |
[V:2]E[G,E][EG,] z[DA,][A,D] |
[V:3]E,G,G, zF,F, |
[V:4]E,,2z B,,2z |
[V:1]G2E DzB |
[V:2]z[G,E][G,E] z[A,D][A,D] |
[V:3]zG,G, zF,F, |
[V:4]E,,2z B,,2z |
[V:1]eAG cFE |
[V:2]zED zCB, |
[V:3]zCB, zA,G, |
[V:4]zCB, zA,G, |
[V:1]DAG Fz/B/c/d/ |
[V:2]A,FE DzA |
[V:3]F,B,B, B,z2 |
[V:4]F,D,E, B,,2z |
[V:1]e/d/e/f/g/a/ b/c'/b/a/g/f/ |
[V:2]G2E D2A |
[V:3]z6 |
[V:4]z6 |
[V:1]e/d/e/f/g/a/ b/c'/_d'/b/g/e/ |
[V:2]G4- G/E/F/G/ |
[V:3]E3 _D3 |
[V:4]z3 E,3 |
[V:1]c'2z4 |
[V:2]A/G/A/B/c/_d/ e/f/e/d/c/B/ |
[V:3]C2A, G,2_D |
[V:4]A,,2z4 |
[V:1]z6 |
[V:2]A/G/A/B/c/_d/ e/f/e/d/c/B/ |
[V:3]C6 |
[V:4]A,3 _G,3 |
[V:1]z4 z/F/G/=A/ |
[V:2]=A/B/c/B/A/_G/ F/G/F/E/_D/C/ |
[V:3][C3-E3] [C3E3] |
[V:4]F,3 =A,,2F, |
[V:1]B/=A/B/c/_d/e/ f/_g/f/e/d/c/ |
[V:2]B,3 A,3 |
[V:3]_D3 C3 |
[V:4]B,,2z4 |
[V:1]=B/c/d/c/B/A/ G/A/G/F/E/D/ |
[V:2]G,3 =B,2G |
[V:3]D4- DF |
[V:4]z4 z/G,,/=A,,/=B,,/ |
[V:1]E2c =B2f |
[V:2]G2E D2=B |
[V:3]E2z4 |
[V:4]C,/=B,,/C,/D,/E,/F,/ G,/A,/G,/F,/E,/D,/ |
[V:1]e2c =B2A |
[V:2]c2E D2E |
[V:3]z4 zC |
[V:4]C,/=B,,/C,/D,/E,/F,/ G,G,,G,, |
[V:1]G2E D2A |
[V:2]D2C =B,2E |
[V:3]=B,2^F, G,2C |
[V:4]G,,6- |
[V:1]G2E D2A |
[V:2]D2C =B,2E |
[V:3]=B,2^F, G,2C |
[V:4]G,,6- |
[V:1]G2A G2A |
[V:2]D2E D2E |
[V:3]=B,2C B,2C |
[V:4]G,,6- |
[V:1]G2A G2A |
[V:2]D2E D2E |
[V:3]=B,2C B,2C |
[V:4]G,,3 z3 |
[V:1]G2A G2A |
[V:2]D2E D2E |
[V:3]=B,2C B,2C |
[V:4]z6 |
[V:1]G2A G2A |
[V:2]D2E D2F |
[V:3]=B,2C B,2D, |
[V:4]z6 |
[V:1]G2E DzA |
[V:2]E[G,E][EG,] z[DA,][A,D] |
[V:3]E,G,G, zF,F, |
[V:4]E,,2z B,,2z |
[V:1]G2E DzB |
[V:2]z[EG,][EG,] z[DA,][A,D] |
[V:3]zG,G, zF,F, |
[V:4]E,,2z B,,2z |
[V:1]eAG cFE |
[V:2]zED zCB, |
[V:3]zCB, zA,G, |
[V:4]zCB, zA,G, |
[V:1]DAG FzA |
[V:2]A,FE DzF |
[V:3]F,B,B, B,zB, |
[V:4]F,D,E, B,,zD,, |
[V:1]G2E DzA |
[V:2]E2=A, B,zF |
[V:3]B,2E, F,zB, |
[V:4]E,,G,,C, B,,zD,, |
[V:1]G2E DzB |
[V:2]E2=A, B,zD |
[V:3]B,2E, F,z2 |
[V:4]E,,G,,C, B,,zB,- |
[V:1]c2d e2d |
[V:2]E2F B,3 |
[V:3]z2B, E2F |
[V:4]B,=A,_A,2 G,F, |
[V:1]cB=A B2b |
[V:2]CDE D2B |
[V:3]GFC D2F |
[V:4]E,F,F, B,,2D |
[V:1]_c'b=a b2g |
[V:2]_cB=A B2G |
[V:3]_G4 FD |
[V:4]E4 D=B, |
[V:1]ag^f g2=f |
[V:2]AG^F G2=F |
[V:3]E4 D=B, |
[V:4]C4 =B,G, |
[V:1]e4 fe |
[V:2]E3 _D3 |
[V:3]C_DC B,3 |
[V:4]A,B,A, G,3 |
[V:1]e3 =e3 |
[V:2]C_DC D3 |
[V:3]A,B,A, B,3 |
[V:4]A,B,A, G,A,G, |
[V:1]fag bac' |
[V:2]CAG BAc |
[V:3]A,F=E GFA |
[V:4]A,F,=E, G,F,A, |
[V:1]e3 d2B |
[V:2]Bc=A B2F |
[V:3]G2_G F2D |
[V:4]B,2>B,,2 B,B, |
[V:1]_cB=A B2B, |
[V:2]_G3 F2B, |
[V:3]E3 D2B, |
[V:4]B,4- B,B,, |
[V:1]_CB,=A, B,2B |
[V:2]_CB,=A, B,2F |
[V:3]_CB,=A, B,2D |
[V:4]_C,B,,=A,, B,,B,B, |
[V:1]_ce=A B2F |
[V:2]_G3 F2F |
[V:3]E3 D2F |
[V:4]B,4- B,F, |
[V:1]_GE=A, B,2B- |
[V:2]_GE=A, B,2z |
[V:3]_GE=A, B,2A |
[V:4]_G,E,=A,, B,,2z |
[V:1]Beg2 fB- |
[V:2]z6 |
[V:3]G2E DzA |
[V:4]z6 |
[V:1]Beg2 fa- |
[V:2]z6 |
[V:3]G2E D2c |
[V:4]z6 |
[V:1]agc'2 ba- |
[V:2]z4 zf- |
[V:3]B2A G2A |
[V:4]z6 |
[V:1]agf2 gB- |
[V:2]fed2 eB, |
[V:3]B2B, E2A, |
[V:4]z4 zA,, |
[V:1]Beg2 fB- |
[V:2]B,EG2 FB,- |
[V:3]G,2E, D,zA, |
[V:4]G,,2E,, D,,zA,, |
[V:1]Beg2 fa- |
[V:2]B,EG2 FA- |
[V:3]G,2E, D,2C |
[V:4]G,,2E,, D,,2C, |
[V:1]agc'2 be'- |
[V:2]AGc2 Be- |
[V:3]B,2A, G,2B |
[V:4]B,,2A,, G,,2G |
[V:1]e'd'c'2 b=a |
[V:2]edc2 B=A |
[V:3]A2G F2E |
[V:4]F2E D2C |
[V:1]b2=b c'2z |
[V:2]B2=B c2z |
[V:3]F3 z3 |
[V:4]D3 z3 |
[V:1]z4 zg |
[V:2]z4 zG |
[V:3]z6 |
[V:4]z6 |
[V:1]a2=a b2z |
[V:2]A2=A B2z |
[V:3]z6 |
[V:4]z6 |
[V:1]z4 zf |
[V:2]z4 zF |
[V:3]z4 z_D |
[V:4]z4 z_C |
[V:1]_g2f g2=g |
[V:2]_G2A G2=G |
[V:3]_D2D D2E |
[V:4]B,2_C B,2_D |
[V:1]a2g a2=a |
[V:2]A2B A2=A |
[V:3]E2E E2F |
[V:4]C2_D C2E |
[V:1]b2=a b2=b |
[V:2]B2=A B2=B |
[V:3]F2F F2F |
[V:4]D2E D2D |
[V:1]c'd'e' =e'f'_e' |
[V:2]cde =ef_e |
[V:3][FA,][FA,][A,F] [A,F][FA,][FA,] |
[V:4]DDD DDD |
[V:1]d'c'b b2_c' |
[V:2]dcB B2_c |
[V:3][F6-A,6] |
[V:4]D6- |
[V:1]b2_c' b2c' |
[V:2]B2_c B2c |
[V:3][F6A,6-] |
[V:4]D6- |
[V:1]b3 z3 |
[V:2]B3 z3 |
[V:3][F3A,3] z3 |
[V:4]D3 z2A,, |
[V:1]z6 |
[V:2]z6 |
[V:3]z4 zA, |
[V:4]G,,2E,, D,,zD, |
[V:1]z6 |
[V:2]z4 zA |
[V:3]G,2E, D,zD |
[V:4]E,G,,=A,, B,,3- |
[V:1]z4 za |
[V:2]G2E Dzd |
[V:3]EG,=A, B,2B,- |
[V:4]B,,6- |
[V:1]_g2e dza |
[V:2]e2=A Bzd |
[V:3]B,E_G2 FB,- |
[V:4]B,,6- |
[V:1]_g2e d2_d |
[V:2]e2=A B3 |
[V:3]B,E_G2 F=E- |
[V:4]B,,6- |
[V:1]c2_c B2=A |
[V:2]=A2_A G2_G |
[V:3]EFD2 EC |
[V:4]B,,6 |
[V:1]A/F/G/A/B/c/ d/e/f/g/a/b/ |
[V:2]F6 |
[V:3]D6 |
[V:4]B,,6 |
[V:1]c'/b/a/b/a/g/ a/g/f/g/f/e/ |
[V:2][A,2F2]z [A,2F2]z |
[V:3]D2z D2z |
[V:4]B,,2z B,,2z |
[V:1]f/e/d/e/d/c/ d/c/B/c/B/A/ |
[V:2][F2A,2]z [F2A,2]z |
[V:3]D2z D2z |
[V:4]B,,2z B,,2z |
[V:1]G/A/B/c/d/e/ c/d/e/f/g/a/ |
[V:2][B,2E2]z [C2E2]z |
[V:3]E2z A,2z |
[V:4]E,2z A,,2z |
[V:1]g/a/=a/b/g/e/ =e/f/g/_a/f/d/ |
[V:2]E2z D2A |
[V:3]B,2z F2z |
[V:4]B,,2z B,,2z |
[V:1]e/d/e/f/g/a/ b/c'/b/a/g/f/ |
[V:2]G2_d c2A |
[V:3]E2G A2d |
[V:4]E,6- |
[V:1]e/d/e/f/g/a/ b/c'/b/a/g/f/ |
[V:2]G2_d c2A |
[V:3]e2G A2d |
[V:4]E,6- |
[V:1]e/g/f/e/d/c/ B/e/d/c/B/A/ |
[V:2]G2z G2z |
[V:3]e2z E2z |
[V:4]E,2z E,2z |
[V:1]G/c/B/A/G/F/ E/D/E/B,/C/D/ |
[V:2]G/c/B/A/G/F/ E/D/E/B,/C/D/ |
[V:3]G/c/B/A/G/F/ E/D/E/B,/C/D/ |
[V:4]G,/C/B,/A,/G,/F,/ E,/D,/E,/B,,/C,/D,/ |
[V:1]E/D/E/B,/C/D/ E/G/B/A/G/F/ |
[V:2]E/D/E/B,/C/D/ E/G/B/A/G/F/ |
[V:3]E/D/E/B,/C/D/ E/G/B/A/G/F/ |
[V:4]E,/D,/E,/B,,/C,/D,/ E,/G,/B,/A,/G,/F,/ |
[V:1]E2z [g2B2]z |
[V:2]E2z [B2g2]z |
[V:3]E2z [E2G,2]z |
[V:4]E,2z E,,2z |
[V:1][E2G,2]z4 |]
[V:2][E2G,2]z4 |]
[V:3][G,2E2]z4 |]
[V:4]E,,2z4 |]

